; generated by Slic3r 0.9.10b on 2013-09-17 at 19:17:51

; layer_height = 0.3
; perimeters = 2
; top_solid_layers = 2
; bottom_solid_layers = 2
; fill_density = 0.1
; perimeter_speed = 50
; infill_speed = 60
; travel_speed = 120
; nozzle_diameter = 0.45
; filament_diameter = 3
; extrusion_multiplier = 1
; perimeters extrusion width = 0.55mm
; infill extrusion width = 0.55mm
; solid infill extrusion width = 0.55mm
; top infill extrusion width = 0.55mm
; first layer extrusion width = 0.70mm

G21 ; set units to millimeters
M107
M190 S110 ; wait for bed temperature to be reached
M104 S260 ; set temperature
G28 ; home all axes
G1 Z5 F5000 ; lift nozzle
M109 S260 ; wait for temperature to be reached
G90 ; use absolute coordinates
G92 E0
M82 ; use absolute distances for extrusion
G1 F1800.000 E-1.00000
G92 E0
G1 Z0.350 F7200.000
G1 X67.840 Y66.507
G1 F1800.000 E1.00000
G1 X68.950 Y65.607 F1800.000 E1.04573
G1 X70.210 Y64.927 E1.09156
G1 X71.580 Y64.517 E1.13732
G1 X73.000 Y64.377 E1.18299
G1 X103.000 Y64.377 E2.14311
G1 X104.550 Y64.537 E2.19298
G1 X106.020 Y65.027 E2.24257
G1 X107.360 Y65.817 E2.29235
G1 X108.500 Y66.877 E2.34217
G1 X109.390 Y68.157 E2.39206
G1 X133.380 Y111.817 E3.98640
G1 X134.050 Y113.517 E4.04488
G1 X134.280 Y115.327 E4.10327
G1 X134.280 Y128.327 E4.51932
G1 X134.140 Y129.747 E4.56499
G1 X133.730 Y131.117 E4.61075
G1 X133.050 Y132.377 E4.65658
G1 X132.150 Y133.487 E4.70231
G1 X131.040 Y134.387 E4.74804
G1 X129.780 Y135.067 E4.79387
G1 X128.410 Y135.477 E4.83963
G1 X126.990 Y135.617 E4.88530
G1 X102.800 Y135.617 E5.65947
G1 X101.320 Y135.467 E5.70708
G1 X99.910 Y135.017 E5.75445
G1 X98.610 Y134.297 E5.80201
G1 X97.490 Y133.327 E5.84943
G1 X67.690 Y101.657 E7.24115
G1 X66.850 Y100.567 E7.28519
G1 X66.220 Y99.347 E7.32914
G1 X65.840 Y98.027 E7.37310
G1 X65.710 Y96.657 E7.41714
G1 X65.710 Y71.667 E8.21692
G1 X65.850 Y70.247 E8.26258
G1 X66.260 Y68.877 E8.30835
G1 X66.940 Y67.617 E8.35417
G1 X67.779 Y66.582 E8.39680
G1 X68.300 Y66.967 F7200.000
G1 X69.310 Y66.137 F1800.000 E8.43864
G1 X70.460 Y65.527 E8.48030
G1 X71.700 Y65.147 E8.52181
G1 X73.000 Y65.017 E8.56362
G1 X103.000 Y65.017 E9.52374
G1 X104.410 Y65.167 E9.56912
G1 X105.750 Y65.617 E9.61436
G1 X106.970 Y66.337 E9.65970
G1 X108.010 Y67.307 E9.70521
G1 X108.820 Y68.467 E9.75049
G1 X132.810 Y112.127 E11.34482
G1 X133.430 Y113.677 E11.39825
G1 X133.640 Y115.327 E11.45148
G1 X133.640 Y128.327 E11.86753
G1 X133.510 Y129.627 E11.90935
G1 X133.130 Y130.867 E11.95085
G1 X132.520 Y132.017 E11.99251
G1 X131.690 Y133.027 E12.03435
G1 X130.680 Y133.857 E12.07619
G1 X129.530 Y134.467 E12.11785
G1 X128.290 Y134.847 E12.15936
G1 X126.990 Y134.977 E12.20117
G1 X102.800 Y134.977 E12.97535
G1 X101.450 Y134.837 E13.01878
G1 X100.160 Y134.427 E13.06210
G1 X98.980 Y133.767 E13.10537
G1 X97.960 Y132.877 E13.14870
G1 X68.160 Y101.207 E14.54042
G1 X67.180 Y99.867 E14.59355
G1 X66.560 Y98.317 E14.64698
G1 X66.350 Y96.657 E14.70053
G1 X66.350 Y71.667 E15.50030
G1 X66.480 Y70.367 E15.54212
G1 X66.860 Y69.127 E15.58362
G1 X67.470 Y67.977 E15.62528
G1 X68.238 Y67.042 E15.66402
G1 F1800.000 E14.66402
G92 E0
G1 X73.323 Y71.990 F7200.000
G1 F1800.000 E1.00000
G1 X102.677 Y71.990 F1440.000 E1.93943
G1 X102.677 Y76.343 E2.07877
G1 X77.677 Y76.343 E2.87886
G1 X77.677 Y96.343 E3.51894
G1 X73.323 Y96.343 E3.65828
G1 X73.323 Y72.087 E4.43458
G1 X73.883 Y72.313 F7200.000
G1 X73.970 Y72.636
G1 X102.030 Y72.636 F1800.000 E5.33265
G1 X102.030 Y75.697 E5.43061
G1 X77.030 Y75.697 E6.23071
G1 X77.030 Y95.697 E6.87078
G1 X73.970 Y95.697 E6.96875
G1 X73.970 Y72.733 E7.70368
G1 X74.933 Y95.229 F7200.000
G1 X74.438 Y94.734 F2160.000 E7.72611
G1 X74.438 Y93.819 E7.75542
G1 X75.848 Y95.229 E7.81931
G1 X76.562 Y95.028 E7.84308
G1 X74.438 Y92.904 E7.93931
G1 X74.438 Y91.989 E7.96863
G1 X76.562 Y94.113 E8.06487
G1 X76.562 Y93.197 E8.09419
G1 X74.438 Y91.073 E8.19043
G1 X74.438 Y90.158 E8.21974
G1 X76.562 Y92.282 E8.31598
G1 X76.562 Y91.367 E8.34530
G1 X74.438 Y89.243 E8.44154
G1 X74.438 Y88.328 E8.47086
G1 X76.562 Y90.452 E8.56709
G1 X76.562 Y89.537 E8.59641
G1 X74.438 Y87.413 E8.69265
G1 X74.438 Y86.498 E8.72197
G1 X76.562 Y88.622 E8.81821
G1 X76.562 Y87.707 E8.84753
G1 X74.438 Y85.583 E8.94376
G1 X74.438 Y84.668 E8.97308
G1 X76.562 Y86.792 E9.06932
G1 X76.562 Y85.877 E9.09864
G1 X74.438 Y83.753 E9.19488
G1 X74.438 Y82.838 E9.22419
G1 X76.562 Y84.962 E9.32043
G1 X76.562 Y84.047 E9.34975
G1 X74.438 Y81.923 E9.44599
G1 X74.438 Y81.008 E9.47531
G1 X76.562 Y83.132 E9.57155
G1 X76.562 Y82.217 E9.60086
G1 X74.438 Y80.093 E9.69710
G1 X74.438 Y79.177 E9.72642
G1 X76.562 Y81.301 E9.82266
G1 X76.562 Y80.386 E9.85198
G1 X74.438 Y78.262 E9.94821
G1 X74.438 Y77.347 E9.97753
G1 X76.562 Y79.471 E10.07377
G1 X76.562 Y78.556 E10.10309
G1 X74.438 Y76.432 E10.19933
G1 X74.438 Y75.517 E10.22865
G1 X76.562 Y77.641 E10.32488
G1 X76.562 Y76.726 E10.35420
G1 X74.438 Y74.602 E10.45044
G1 X74.438 Y73.687 E10.47976
G1 X76.562 Y75.811 E10.57600
G1 X76.895 Y75.229 E10.59748
G1 X74.771 Y73.105 E10.69372
G1 X75.686 Y73.105 E10.72304
G1 X77.810 Y75.229 E10.81928
G1 X78.725 Y75.229 E10.84860
G1 X76.601 Y73.105 E10.94483
G1 X77.516 Y73.105 E10.97415
G1 X79.640 Y75.229 E11.07039
G1 X80.555 Y75.229 E11.09971
G1 X78.431 Y73.105 E11.19595
G1 X79.346 Y73.105 E11.22527
G1 X81.470 Y75.229 E11.32150
G1 X82.385 Y75.229 E11.35082
G1 X80.261 Y73.105 E11.44706
G1 X81.176 Y73.105 E11.47638
G1 X83.300 Y75.229 E11.57262
G1 X84.215 Y75.229 E11.60193
G1 X82.091 Y73.105 E11.69817
G1 X83.007 Y73.105 E11.72749
G1 X85.131 Y75.229 E11.82373
G1 X86.046 Y75.229 E11.85305
G1 X83.922 Y73.105 E11.94928
G1 X84.837 Y73.105 E11.97860
G1 X86.961 Y75.229 E12.07484
G1 X87.876 Y75.229 E12.10416
G1 X85.752 Y73.105 E12.20040
G1 X86.667 Y73.105 E12.22972
G1 X88.791 Y75.229 E12.32595
G1 X89.706 Y75.229 E12.35527
G1 X87.582 Y73.105 E12.45151
G1 X88.497 Y73.105 E12.48083
G1 X90.621 Y75.229 E12.57707
G1 X91.536 Y75.229 E12.60638
G1 X89.412 Y73.105 E12.70262
G1 X90.327 Y73.105 E12.73194
G1 X92.451 Y75.229 E12.82818
G1 X93.366 Y75.229 E12.85750
G1 X91.242 Y73.105 E12.95374
G1 X92.157 Y73.105 E12.98305
G1 X94.281 Y75.229 E13.07929
G1 X95.196 Y75.229 E13.10861
G1 X93.072 Y73.105 E13.20485
G1 X93.987 Y73.105 E13.23417
G1 X96.111 Y75.229 E13.33040
G1 X97.027 Y75.229 E13.35972
G1 X94.903 Y73.105 E13.45596
G1 X95.818 Y73.105 E13.48528
G1 X97.942 Y75.229 E13.58152
G1 X98.857 Y75.229 E13.61083
G1 X96.733 Y73.105 E13.70707
G1 X97.648 Y73.105 E13.73639
G1 X99.772 Y75.229 E13.83263
G1 X100.687 Y75.229 E13.86195
G1 X98.563 Y73.105 E13.95819
G1 X99.478 Y73.105 E13.98750
G1 X101.562 Y75.189 E14.08193
G1 X101.562 Y74.274 E14.11125
G1 X100.393 Y73.105 E14.16422
G1 X101.308 Y73.105 E14.19353
G1 X101.562 Y73.359 E14.20504
G1 F1800.000 E13.20504
G92 E0
G1 X106.027 Y70.451 F7200.000
G1 X105.771 Y78.296
G1 X98.869 Y89.121
G1 X97.746 Y92.444
G1 F1800.000 E1.00000
G1 X107.271 Y115.657 F1440.000 E1.80299
G1 X126.677 Y115.657 E2.42405
G1 X126.677 Y128.010 E2.81942
G1 X102.980 Y128.010 E3.57780
G1 X93.323 Y113.216 E4.14321
G1 X93.323 Y92.444 E4.80800
G1 X97.649 Y92.444 E4.94646
G1 X97.578 Y93.068 F7200.000
G1 X97.313 Y93.091
G1 X106.838 Y116.303 F1800.000 E5.74945
G1 X110.891 Y116.303 E5.87916
G1 X110.954 Y116.590 E5.88858
G1 X110.129 Y116.975 E5.91772
G1 X109.740 Y117.247 E5.93291
G1 X109.404 Y117.583 E5.94811
G1 X109.132 Y117.972 E5.96330
G1 X108.932 Y118.402 E5.97849
G1 X108.809 Y118.860 E5.99368
G1 X108.771 Y119.291 E6.00752
G1 X108.771 Y123.376 E6.13824
G1 X108.809 Y123.806 E6.15207
G1 X108.932 Y124.265 E6.16726
G1 X109.132 Y124.695 E6.18245
G1 X109.404 Y125.084 E6.19765
G1 X109.740 Y125.419 E6.21284
G1 X110.051 Y125.637 E6.22498
G1 X110.129 Y125.692 E6.22803
G1 X110.559 Y125.892 E6.24322
G1 X111.018 Y126.015 E6.25841
G1 X111.490 Y126.057 E6.27361
G1 X111.963 Y126.015 E6.28880
G1 X112.422 Y125.892 E6.30399
G1 X112.766 Y125.732 E6.31613
G1 X112.852 Y125.692 E6.31918
G1 X113.241 Y125.419 E6.33438
G1 X113.577 Y125.084 E6.34957
G1 X113.849 Y124.695 E6.36476
G1 X114.050 Y124.265 E6.37995
G1 X114.172 Y123.806 E6.39514
G1 X114.210 Y123.376 E6.40897
G1 X114.210 Y119.291 E6.53970
G1 X114.172 Y118.861 E6.55353
G1 X114.050 Y118.402 E6.56872
G1 X113.849 Y117.972 E6.58392
G1 X113.577 Y117.583 E6.59911
G1 X113.241 Y117.247 E6.61430
G1 X112.852 Y116.975 E6.62949
G1 X112.027 Y116.590 E6.65864
G1 X112.090 Y116.303 E6.66805
G1 X120.400 Y116.303 E6.93399
G1 X120.464 Y116.590 E6.94341
G1 X119.638 Y116.975 E6.97255
G1 X119.250 Y117.247 E6.98774
G1 X118.914 Y117.583 E7.00294
G1 X118.642 Y117.972 E7.01813
G1 X118.441 Y118.402 E7.03332
G1 X118.318 Y118.860 E7.04851
G1 X118.280 Y119.291 E7.06235
G1 X118.280 Y123.376 E7.19307
G1 X118.318 Y123.806 E7.20690
G1 X118.441 Y124.265 E7.22209
G1 X118.642 Y124.695 E7.23728
G1 X118.914 Y125.084 E7.25248
G1 X119.250 Y125.419 E7.26767
G1 X119.638 Y125.692 E7.28286
G1 X120.069 Y125.892 E7.29805
G1 X120.527 Y126.015 E7.31324
G1 X121.000 Y126.057 E7.32843
G1 X121.473 Y126.015 E7.34363
G1 X121.931 Y125.892 E7.35882
G1 X122.362 Y125.692 E7.37401
G1 X122.750 Y125.419 E7.38920
G1 X123.086 Y125.084 E7.40440
G1 X123.358 Y124.695 E7.41958
G1 X123.559 Y124.265 E7.43478
G1 X123.682 Y123.806 E7.44997
G1 X123.720 Y123.376 E7.46380
G1 X123.720 Y119.291 E7.59453
G1 X123.682 Y118.861 E7.60836
G1 X123.559 Y118.402 E7.62355
G1 X123.358 Y117.972 E7.63875
G1 X123.086 Y117.583 E7.65394
G1 X122.750 Y117.247 E7.66913
G1 X122.362 Y116.975 E7.68432
G1 X121.536 Y116.590 E7.71347
G1 X121.600 Y116.303 E7.72288
G1 X126.030 Y116.303 E7.86468
G1 X126.030 Y127.364 E8.21867
G1 X103.330 Y127.364 E8.94517
G1 X93.970 Y113.024 E9.49323
G1 X93.970 Y93.091 E10.13117
G1 X97.216 Y93.091 E10.23507
G1 X97.628 Y92.621 F7200.000
G1 X107.153 Y115.833
G1 X110.000 Y117.594
G1 X110.453 Y117.537
G1 X110.781 Y117.384 F1080.000 E10.24665
G1 X111.130 Y117.290 E10.25822
G1 X111.491 Y117.259 E10.26979
G1 X111.851 Y117.290 E10.28136
G1 X112.200 Y117.384 E10.29294
G1 X112.528 Y117.537 E10.30451
G1 X112.824 Y117.744 E10.31608
G1 X113.080 Y118.000 E10.32765
G1 X113.287 Y118.296 E10.33923
G1 X113.440 Y118.624 E10.35080
G1 X113.533 Y118.973 E10.36237
G1 X113.564 Y119.319 E10.37349
G1 X113.564 Y123.347 E10.50241
G1 X113.533 Y123.694 E10.51353
G1 X113.440 Y124.043 E10.52510
G1 X113.287 Y124.371 E10.53667
G1 X113.080 Y124.667 E10.54825
G1 X112.824 Y124.922 E10.55982
G1 X112.492 Y125.146 E10.57262
G1 X112.200 Y125.283 E10.58295
G1 X111.851 Y125.376 E10.59452
G1 X111.491 Y125.408 E10.60609
G1 X111.130 Y125.376 E10.61766
G1 X110.781 Y125.283 E10.62924
G1 X110.453 Y125.130 E10.64081
G1 X110.157 Y124.922 E10.65238
G1 X109.901 Y124.667 E10.66395
G1 X109.694 Y124.371 E10.67553
G1 X109.541 Y124.043 E10.68710
G1 X109.448 Y123.694 E10.69867
G1 X109.417 Y123.347 E10.70979
G1 X109.417 Y119.319 E10.83871
G1 X109.448 Y118.973 E10.84983
G1 X109.541 Y118.624 E10.86140
G1 X109.694 Y118.296 E10.87297
G1 X109.901 Y118.000 E10.88454
G1 X110.157 Y117.744 E10.89612
G1 X110.374 Y117.592 E10.90459
G1 X110.761 Y117.727 F7200.000
G1 X110.000 Y117.594
G1 X111.424 Y117.076
G1 X111.679 Y117.098
G1 X118.747 Y119.228
G1 X118.957 Y118.973
G1 X119.051 Y118.624 F1080.000 E10.91616
G1 X119.204 Y118.296 E10.92773
G1 X119.411 Y118.000 E10.93930
G1 X119.667 Y117.744 E10.95088
G1 X119.963 Y117.537 E10.96245
G1 X120.291 Y117.384 E10.97402
G1 X120.640 Y117.290 E10.98559
G1 X121.000 Y117.259 E10.99716
G1 X121.360 Y117.290 E11.00874
G1 X121.709 Y117.384 E11.02031
G1 X122.037 Y117.537 E11.03188
G1 X122.333 Y117.744 E11.04345
G1 X122.589 Y118.000 E11.05503
G1 X122.796 Y118.296 E11.06660
G1 X122.949 Y118.624 E11.07817
G1 X123.043 Y118.973 E11.08974
G1 X123.073 Y119.319 E11.10086
G1 X123.073 Y123.347 E11.22978
G1 X123.043 Y123.694 E11.24090
G1 X122.949 Y124.043 E11.25247
G1 X122.796 Y124.371 E11.26405
G1 X122.589 Y124.667 E11.27562
G1 X122.333 Y124.922 E11.28719
G1 X122.037 Y125.130 E11.29876
G1 X121.709 Y125.283 E11.31033
G1 X121.360 Y125.376 E11.32191
G1 X121.000 Y125.408 E11.33348
G1 X120.640 Y125.376 E11.34505
G1 X120.291 Y125.283 E11.35662
G1 X119.963 Y125.130 E11.36820
G1 X119.667 Y124.922 E11.37977
G1 X119.411 Y124.667 E11.39134
G1 X119.203 Y124.371 E11.40291
G1 X119.051 Y124.043 E11.41449
G1 X118.957 Y123.694 E11.42606
G1 X118.927 Y123.347 E11.43718
G1 X118.927 Y119.319 E11.56610
G1 X118.949 Y119.070 E11.57411
G1 X119.300 Y118.859 F7200.000
G1 X118.747 Y119.228
G1 X119.509 Y117.594
G1 X120.933 Y117.076
G1 X126.500 Y115.833
G1 X125.280 Y116.771
G1 X125.562 Y117.053 F2160.000 E11.58695
G1 X125.562 Y117.973 E11.61655
G1 X124.361 Y116.771 E11.67124
G1 X123.441 Y116.771 E11.70083
G1 X125.562 Y118.892 E11.79738
G1 X125.562 Y119.811 E11.82697
G1 X124.004 Y118.254 E11.89788
G1 X124.188 Y119.357 E11.93388
G1 X125.562 Y120.731 E11.99643
G1 X125.562 Y121.650 E12.02603
G1 X124.188 Y120.276 E12.08858
G1 X124.188 Y121.196 E12.11817
G1 X125.562 Y122.570 E12.18072
G1 X125.562 Y123.489 E12.21032
G1 X124.188 Y122.115 E12.27287
G1 X124.188 Y123.035 E12.30246
G1 X125.562 Y124.408 E12.36501
G1 X125.562 Y125.328 E12.39461
G1 X124.140 Y123.906 E12.45934
G1 X123.918 Y124.603 E12.48289
G1 X125.562 Y126.247 E12.55774
G1 X125.291 Y126.895 E12.58035
G1 X123.584 Y125.189 E12.65803
G1 X123.154 Y125.678 E12.67900
G1 X124.371 Y126.895 E12.73440
G1 X123.452 Y126.895 E12.76400
G1 X122.631 Y126.075 E12.80135
G1 X122.091 Y126.453 E12.82260
G1 X122.532 Y126.895 E12.84272
G1 X120.489 Y126.691 F7200.000
G1 X120.485 Y126.687 F1080.000 E12.84288
G1 X119.774 Y126.895 F7200.000
G1 X114.679 Y121.800 F2160.000 E13.07351
G1 X114.679 Y120.880 F7200.000
G1 X117.917 Y124.119 F2160.000 E13.22007
G1 X117.812 Y123.094 F7200.000
G1 X114.679 Y119.961 F2160.000 E13.36189
G1 X114.657 Y119.020 F7200.000
G1 X117.812 Y122.175 F2160.000 E13.50471
G1 X117.812 Y121.256 F7200.000
G1 X114.170 Y117.614 F2160.000 E13.66954
G1 X114.247 Y116.771 F7200.000
G1 X117.812 Y120.336 F2160.000 E13.83088
G1 X117.812 Y119.417 F7200.000
G1 X115.167 Y116.771 F2160.000 E13.95061
G1 X116.086 Y116.771 F7200.000
G1 X117.905 Y118.591 F2160.000 E14.03296
G1 X118.150 Y117.916 F7200.000
G1 X117.005 Y116.771 F2160.000 E14.08478
G1 X117.925 Y116.771 F7200.000
G1 X118.504 Y117.351 F2160.000 E14.11101
G1 X118.883 Y116.810 F7200.000
G1 X118.844 Y116.771 F2160.000 E14.11277
G1 X114.679 Y122.719 F7200.000
G1 X118.855 Y126.895 F2160.000 E14.30179
G1 X117.935 Y126.895 F7200.000
G1 X114.659 Y123.619 F2160.000 E14.45008
G1 X114.503 Y124.382 F7200.000
G1 X117.016 Y126.895 F2160.000 E14.56381
G1 X116.097 Y126.895 F7200.000
G1 X114.205 Y125.004 F2160.000 E14.64944
G1 X113.802 Y125.521 F7200.000
G1 X115.177 Y126.895 F2160.000 E14.71166
G1 X114.258 Y126.895 F7200.000
G1 X113.307 Y125.945 F2160.000 E14.75468
G1 X112.767 Y126.324 F7200.000
G1 X113.338 Y126.895 F2160.000 E14.78056
G1 X112.419 Y126.895 F7200.000
G1 X112.226 Y126.702 F2160.000 E14.78930
G1 X110.580 Y126.895 F7200.000
G1 X109.527 Y125.842 F2160.000 E14.83696
G1 X108.982 Y125.297 F7200.000
G1 X94.438 Y110.753 F2160.000 E15.49522
G1 X94.438 Y109.834 F7200.000
G1 X108.332 Y123.727 F2160.000 E16.12405
G1 X108.303 Y122.779 F7200.000
G1 X94.438 Y108.914 F2160.000 E16.75156
G1 X94.438 Y107.995 F7200.000
G1 X108.303 Y121.859 F2160.000 E17.37907
G1 X108.303 Y120.940 F7200.000
G1 X94.438 Y107.076 F2160.000 E18.00659
G1 X94.438 Y106.156 F7200.000
G1 X108.303 Y120.021 F2160.000 E18.63410
G1 X108.316 Y119.115 F7200.000
G1 X94.438 Y105.237 F2160.000 E19.26224
G1 X94.438 Y104.317 F7200.000
G1 X106.267 Y116.147 F2160.000 E19.79763
G1 X106.892 Y116.771 F7200.000
G1 X108.463 Y118.342 F2160.000 E19.86871
G1 X108.746 Y117.706 F7200.000
G1 X107.811 Y116.771 F2160.000 E19.91102
G1 X108.731 Y116.771 F7200.000
G1 X109.125 Y117.165 F2160.000 E19.92886
G1 X105.627 Y114.587 F7200.000
G1 X94.438 Y103.398 F2160.000 E20.43530
G1 X94.438 Y102.479 F7200.000
G1 X104.988 Y113.028 F2160.000 E20.91277
G1 X104.348 Y111.469 F7200.000
G1 X94.438 Y101.559 F2160.000 E21.36130
G1 X94.438 Y100.640 F7200.000
G1 X103.708 Y109.910 F2160.000 E21.78086
G1 X103.068 Y108.351 F7200.000
G1 X94.438 Y99.720 F2160.000 E22.17147
G1 X94.438 Y98.801 F7200.000
G1 X102.429 Y106.791 F2160.000 E22.53313
G1 X101.789 Y105.232 F7200.000
