;Generated with Cura_SteamEngine 13.06.4
M140 S100.000000
M109 T0 S230.000000
T0
M190 S100.000000
;Sliced at: Wed 25 Sep 2013 22:13:28
;Basic settings: Layer height: 0.2 Walls: 1.4 Fill: 100
;Print time: #P_TIME#
;Filament used: #F_AMNT#m #F_WGHT#g
;Filament cost: #F_COST#
G21        ;metric values
G90        ;absolute positioning
M107       ;start with the fan off
G28 X0 Y0  ;move X/Y to min endstops
G28 Z0     ;move Z to min endstops
G1 Z15.0 F9000 ;move the platform down 15mm
G92 E0                  ;zero the extruded length
G1 F200 E3              ;extrude 3mm of feed stock
G92 E0                  ;zero the extruded length again
G1 F9000
M117 Printing...

;total_layers=57
;LAYER:0
M107
G0 F2520 X79.83 Y75.58 Z0.30
;TYPE:SKIRT
G1 F1140 X81.68 Y73.72 E0.03343
G1 X88.93 Y73.72 E0.12557
G1 X90.53 Y74.80 E0.15013
G1 X99.62 Y96.93 E0.45442
G1 X105.63 Y96.93 E0.53091
G1 X106.80 Y97.41 E0.54698
G1 X119.69 Y110.31 E0.77886
G1 X120.18 Y111.47 E0.79492
G1 X120.18 Y124.42 E0.95959
G1 X118.31 Y126.28 E0.99308
G1 X100.29 Y126.25 E1.22227
G1 X100.12 Y126.24 E1.22444
G1 X99.26 Y126.15 E1.23548
G1 X99.14 Y126.13 E1.23694
G1 X98.31 Y125.98 E1.24766
G1 X98.20 Y125.96 E1.24915
G1 X97.38 Y125.74 E1.25986
G1 X97.28 Y125.71 E1.26129
G1 X96.48 Y125.44 E1.27199
G1 X96.37 Y125.40 E1.27347
G1 X95.59 Y125.07 E1.28420
G1 X95.49 Y125.02 E1.28568
G1 X94.74 Y124.64 E1.29640
G1 X94.64 Y124.58 E1.29787
G1 X93.92 Y124.15 E1.30857
G1 X93.82 Y124.08 E1.31002
G1 X93.14 Y123.60 E1.32073
G1 X93.04 Y123.53 E1.32222
G1 X92.39 Y122.99 E1.33293
G1 X92.31 Y122.91 E1.33438
G1 X91.70 Y122.33 E1.34508
G1 X91.62 Y122.25 E1.34656
G1 X91.05 Y121.62 E1.35726
G1 X90.98 Y121.54 E1.35872
G1 X90.46 Y120.87 E1.36944
G1 X90.39 Y120.78 E1.37093
G1 X89.93 Y120.07 E1.38165
G1 X89.87 Y119.98 E1.38310
G1 X89.47 Y119.29 E1.39315
G1 X89.45 Y119.24 E1.39389
G1 X80.01 Y101.13 E1.65364
G1 X79.83 Y100.38 E1.66338
G1 X79.83 Y75.58 E1.97883
G1 F2400 E-2.52117
G0 F2520 X84.22 Y78.12
;TYPE:WALL-INNER
G1 F2400 E1.97883
G1 F1140 X87.14 Y78.12 E2.01593
G1 X96.50 Y100.92 E2.32928
G1 X97.11 Y101.33 E2.33877
G1 X104.49 Y101.33 E2.43261
G1 X115.78 Y112.61 E2.63551
G1 X115.78 Y121.88 E2.75335
G1 X100.45 Y121.85 E2.94824
G1 X99.83 Y121.79 E2.95613
G1 X99.20 Y121.67 E2.96429
G1 X98.59 Y121.51 E2.97230
G1 X97.99 Y121.31 E2.98043
G1 X97.41 Y121.06 E2.98841
G1 X96.83 Y120.77 E2.99671
G1 X96.29 Y120.44 E3.00476
G1 X95.77 Y120.07 E3.01284
G1 X95.27 Y119.66 E3.02101
G1 X94.81 Y119.22 E3.02911
G1 X94.39 Y118.75 E3.03722
G1 X94.00 Y118.25 E3.04525
G1 X93.64 Y117.72 E3.05336
G1 X84.22 Y99.70 E3.31191
G1 X84.22 Y78.12 E3.58638
G0 F2520 X100.43 Y111.33
G1 F1140 X99.89 Y111.60 E3.59401
G1 X99.61 Y111.80 E3.59844
G1 X99.36 Y112.03 E3.60270
G1 X99.11 Y112.32 E3.60758
G1 X98.80 Y112.83 E3.61521
G1 X98.66 Y113.21 E3.62032
G1 X98.53 Y113.84 E3.62855
G1 X98.51 Y118.12 E3.68299
G1 X98.54 Y118.47 E3.68749
G1 X98.60 Y118.80 E3.69170
G1 X98.71 Y119.17 E3.69662
G1 X98.98 Y119.71 E3.70425
G1 X99.19 Y119.99 E3.70872
G1 X99.41 Y120.23 E3.71292
G1 X99.62 Y120.42 E3.71649
G1 X99.70 Y120.48 E3.71782
G1 X100.21 Y120.80 E3.72544
G1 X100.59 Y120.94 E3.73056
G1 X101.07 Y121.05 E3.73686
G1 X101.17 Y121.07 E3.73816
G1 X101.46 Y121.08 E3.74175
G1 X101.86 Y121.06 E3.74687
G1 X102.18 Y121.00 E3.75108
G1 X102.55 Y120.88 E3.75599
G1 X103.09 Y120.62 E3.76363
G1 X103.37 Y120.41 E3.76806
G1 X103.62 Y120.18 E3.77234
G1 X103.81 Y119.97 E3.77591
G1 X103.87 Y119.89 E3.77721
G1 X104.18 Y119.38 E3.78483
G1 X104.32 Y119.01 E3.78994
G1 X104.45 Y118.37 E3.79817
G1 X104.47 Y114.09 E3.85261
G1 X104.44 Y113.74 E3.85711
G1 X104.38 Y113.41 E3.86135
G1 X104.27 Y113.04 E3.86625
G1 X104.05 Y112.58 E3.87275
G1 X103.97 Y112.47 E3.87449
G1 X103.58 Y111.99 E3.88239
G1 X103.28 Y111.73 E3.88746
G1 X102.77 Y111.42 E3.89506
G1 X102.39 Y111.27 E3.90018
G1 X101.91 Y111.16 E3.90648
G1 X101.81 Y111.15 E3.90778
G1 X101.46 Y111.13 E3.91224
G1 X100.80 Y111.21 E3.92069
G1 X100.43 Y111.33 E3.92560
G0 F2520 X108.09 Y113.46
G1 F1140 X108.04 Y113.76 E3.92941
G1 X108.02 Y118.12 E3.98487
G1 X108.05 Y118.47 E3.98931
G1 X108.11 Y118.80 E3.99362
G1 X108.22 Y119.17 E3.99852
G1 X108.44 Y119.63 E4.00501
G1 X108.52 Y119.75 E4.00678
G1 X108.91 Y120.22 E4.01456
G1 X109.21 Y120.48 E4.01968
G1 X109.63 Y120.75 E4.02599
G1 X109.72 Y120.80 E4.02733
G1 X110.10 Y120.94 E4.03245
G1 X110.58 Y121.05 E4.03874
G1 X110.68 Y121.07 E4.04004
G1 X110.96 Y121.08 E4.04362
G1 X111.37 Y121.06 E4.04874
G1 X111.69 Y121.00 E4.05298
G1 X112.06 Y120.88 E4.05785
G1 X112.60 Y120.62 E4.06551
G1 X112.88 Y120.41 E4.06998
G1 X113.13 Y120.19 E4.07418
G1 X113.32 Y119.97 E4.07777
G1 X113.38 Y119.89 E4.07911
G1 X113.65 Y119.46 E4.08562
G1 X113.71 Y119.33 E4.08734
G1 X113.91 Y118.75 E4.09523
G1 X113.96 Y118.45 E4.09902
G1 X113.97 Y114.09 E4.15449
G1 X113.95 Y113.74 E4.15893
G1 X113.88 Y113.36 E4.16390
G1 X113.71 Y112.89 E4.17019
G1 X113.67 Y112.80 E4.17149
G1 X113.53 Y112.54 E4.17528
G1 X113.16 Y112.06 E4.18289
G1 X112.87 Y111.79 E4.18802
G1 X112.79 Y111.73 E4.18932
G1 X112.37 Y111.46 E4.19562
G1 X112.27 Y111.42 E4.19695
G1 X111.90 Y111.27 E4.20208
G1 X111.42 Y111.16 E4.20836
G1 X111.32 Y111.15 E4.20966
G1 X110.96 Y111.13 E4.21413
G1 X110.63 Y111.15 E4.21836
G1 X110.30 Y111.21 E4.22260
G1 X109.94 Y111.33 E4.22748
G1 X109.40 Y111.60 E4.23513
G1 X109.12 Y111.80 E4.23956
G1 X108.83 Y112.06 E4.24448
G1 X108.47 Y112.54 E4.25209
G1 X108.33 Y112.80 E4.25588
G1 X108.28 Y112.89 E4.25717
G1 X108.09 Y113.46 E4.26485
G0 F2520 X108.44 Y113.54
G1 F1140 X108.39 Y113.87 E4.26917
G1 X108.37 Y118.12 E4.32314
G1 X108.39 Y118.42 E4.32703
G1 X108.44 Y118.71 E4.33081
G1 X108.54 Y119.03 E4.33503
G1 X108.80 Y119.54 E4.34234
G1 X109.10 Y119.92 E4.34840
G1 X109.41 Y120.19 E4.35369
G1 X109.87 Y120.48 E4.36058
G1 X110.19 Y120.60 E4.36495
G1 X110.72 Y120.72 E4.37179
G1 X110.97 Y120.73 E4.37506
G1 X111.32 Y120.71 E4.37942
G1 X111.61 Y120.66 E4.38317
G1 X111.92 Y120.56 E4.38736
G1 X112.41 Y120.32 E4.39426
G1 X112.66 Y120.14 E4.39816
G1 X112.87 Y119.94 E4.40188
G1 X113.04 Y119.75 E4.40515
G1 X113.09 Y119.69 E4.40610
G1 X113.39 Y119.20 E4.41342
G1 X113.54 Y118.75 E4.41950
G1 X113.61 Y118.34 E4.42478
G1 X113.62 Y114.10 E4.47875
G1 X113.60 Y113.79 E4.48263
G1 X113.54 Y113.46 E4.48690
G1 X113.39 Y113.02 E4.49283
G1 X113.36 Y112.96 E4.49375
G1 X113.19 Y112.66 E4.49809
G1 X112.90 Y112.29 E4.50402
G1 X112.85 Y112.24 E4.50498
G1 X112.59 Y112.02 E4.50932
G1 X112.13 Y111.73 E4.51620
G1 X111.81 Y111.61 E4.52057
G1 X111.28 Y111.50 E4.52742
G1 X110.97 Y111.48 E4.53131
G1 X110.68 Y111.50 E4.53505
G1 X110.39 Y111.55 E4.53880
G1 X110.08 Y111.65 E4.54299
G1 X109.59 Y111.89 E4.54988
G1 X109.34 Y112.07 E4.55377
G1 X109.15 Y112.24 E4.55703
G1 X109.10 Y112.29 E4.55798
G1 X108.77 Y112.72 E4.56484
G1 X108.64 Y112.96 E4.56826
G1 X108.61 Y113.02 E4.56918
G1 X108.44 Y113.54 E4.57609
G0 F2520 X104.10 Y113.79
G1 F1140 X104.04 Y113.50 E4.57984
G1 X103.95 Y113.18 E4.58404
G1 X103.69 Y112.67 E4.59134
G1 X103.34 Y112.24 E4.59841
G1 X103.08 Y112.02 E4.60275
G1 X102.62 Y111.74 E4.60959
G1 X102.30 Y111.61 E4.61396
G1 X101.77 Y111.50 E4.62082
G1 X101.47 Y111.48 E4.62472
G1 X101.17 Y111.50 E4.62846
G1 X100.88 Y111.55 E4.63219
G1 X100.57 Y111.65 E4.63641
G1 X100.08 Y111.89 E4.64328
G1 X99.83 Y112.07 E4.64717
G1 X99.62 Y112.27 E4.65092
G1 X99.40 Y112.52 E4.65512
G1 X99.12 Y112.98 E4.66197
G1 X98.99 Y113.30 E4.66634
G1 X98.88 Y113.86 E4.67364
G1 X98.86 Y118.12 E4.72778
G1 X98.88 Y118.42 E4.73171
G1 X98.94 Y118.71 E4.73543
G1 X99.03 Y119.03 E4.73966
G1 X99.27 Y119.51 E4.74653
G1 X99.45 Y119.76 E4.75043
G1 X99.65 Y119.98 E4.75415
G1 X99.90 Y120.19 E4.75835
G1 X100.36 Y120.48 E4.76521
G1 X100.68 Y120.60 E4.76959
G1 X101.21 Y120.72 E4.77644
G1 X101.47 Y120.73 E4.77972
G1 X101.81 Y120.71 E4.78409
G1 X102.10 Y120.66 E4.78781
G1 X102.41 Y120.56 E4.79204
G1 X102.90 Y120.32 E4.79891
G1 X103.15 Y120.14 E4.80279
G1 X103.36 Y119.94 E4.80656
G1 X103.54 Y119.75 E4.80983
G1 X103.86 Y119.23 E4.81759
G1 X103.99 Y118.91 E4.82197
G1 X104.10 Y118.35 E4.82927
G1 X104.11 Y114.10 E4.88340
G1 X104.10 Y113.79 E4.88733
G0 F2520 X103.54 Y119.14
G0 X102.24 Y120.28
G0 X100.43 Y122.20
G1 F1140 X99.79 Y122.13 E4.89555
G1 X99.13 Y122.01 E4.90406
G1 X98.49 Y121.85 E4.91241
G1 X97.86 Y121.63 E4.92097
G1 X97.26 Y121.38 E4.92923
G1 X96.66 Y121.07 E4.93778
G1 X96.09 Y120.73 E4.94619
G1 X95.56 Y120.35 E4.95460
G1 X95.04 Y119.92 E4.96306
G1 X94.57 Y119.47 E4.97144
G1 X94.12 Y118.97 E4.97993
G1 X93.72 Y118.46 E4.98827
G1 X93.34 Y117.90 E4.99673
G1 X93.01 Y117.31 E5.00533
G1 X83.88 Y99.79 E5.25670
G1 X83.88 Y77.77 E5.53670
G1 X87.38 Y77.77 E5.58122
G1 X96.78 Y100.68 E5.89621
G1 X97.22 Y100.98 E5.90299
G1 X104.64 Y100.98 E5.99731
G1 X116.13 Y112.47 E6.20392
G1 X116.13 Y122.23 E6.32805
G1 X100.43 Y122.20 E6.52765
G0 F2520 X100.41 Y122.55
G1 F1140 X99.73 Y122.48 E6.53638
G1 X99.06 Y122.36 E6.54502
G1 X98.39 Y122.18 E6.55386
G1 X97.75 Y121.97 E6.56246
G1 X97.10 Y121.69 E6.57144
G1 X96.50 Y121.38 E6.58002
G1 X95.90 Y121.02 E6.58883
G1 X95.35 Y120.63 E6.59749
G1 X94.80 Y120.18 E6.60649
G1 X94.32 Y119.72 E6.61501
G1 X93.85 Y119.20 E6.62391
G1 X93.43 Y118.66 E6.63253
G1 X93.04 Y118.08 E6.64150
G1 X83.53 Y99.87 E6.90273
G1 X83.53 Y77.42 E7.18825
G1 X87.61 Y77.42 E7.24021
G1 X97.06 Y100.45 E7.55682
G1 X97.33 Y100.63 E7.56090
G1 X104.78 Y100.63 E7.65572
G1 X116.47 Y112.32 E7.86600
G1 X116.47 Y122.58 E7.99644
G1 X100.41 Y122.55 E8.20074
G0 F2520 X100.77 Y120.27
G1 F1140 X101.24 Y120.37 E8.20685
G1 X101.47 Y120.38 E8.20981
G1 X101.76 Y120.36 E8.21343
G1 X102.28 Y120.24 E8.22018
G1 X102.71 Y120.03 E8.22630
G1 X102.92 Y119.88 E8.22962
G1 X103.11 Y119.70 E8.23288
G1 X103.29 Y119.50 E8.23639
G1 X103.54 Y119.09 E8.24251
G1 X103.65 Y118.82 E8.24612
G1 X103.75 Y118.33 E8.25249
G1 X103.77 Y114.10 E8.30633
G1 X103.75 Y113.84 E8.30968
G1 X103.71 Y113.58 E8.31292
G1 X103.64 Y113.36 E8.31588
G1 X103.62 Y113.32 E8.31644
G1 X103.40 Y112.87 E8.32283
G1 X103.09 Y112.49 E8.32905
G1 X102.88 Y112.31 E8.33265
G1 X102.47 Y112.05 E8.33876
G1 X102.21 Y111.95 E8.34238
G1 X101.74 Y111.84 E8.34849
G1 X101.47 Y111.83 E8.35182
G1 X101.22 Y111.85 E8.35507
G1 X100.70 Y111.97 E8.36182
G1 X100.27 Y112.18 E8.36794
G1 X100.06 Y112.34 E8.37127
G1 X99.87 Y112.51 E8.37451
G1 X99.69 Y112.72 E8.37803
G1 X99.44 Y113.13 E8.38415
G1 X99.33 Y113.39 E8.38777
G1 X99.23 Y113.88 E8.39414
G1 X99.21 Y118.11 E8.44797
G1 X99.23 Y118.38 E8.45132
G1 X99.36 Y118.89 E8.45807
G1 X99.57 Y119.32 E8.46419
G1 X99.72 Y119.54 E8.46754
G1 X99.89 Y119.72 E8.47075
G1 X100.06 Y119.88 E8.47371
G1 X100.10 Y119.91 E8.47428
G1 X100.51 Y120.16 E8.48040
G1 X100.77 Y120.27 E8.48402
G0 F2520 X102.29 Y120.26
G0 X108.78 Y118.63
G1 F1140 X108.86 Y118.89 E8.48754
G1 X109.09 Y119.34 E8.49391
G1 X109.39 Y119.72 E8.50010
G1 X109.57 Y119.88 E8.50315
G1 X109.61 Y119.91 E8.50372
G1 X110.02 Y120.16 E8.50985
G1 X110.28 Y120.27 E8.51347
G1 X110.75 Y120.37 E8.51957
G1 X110.98 Y120.38 E8.52251
G1 X111.27 Y120.36 E8.52614
G1 X111.52 Y120.32 E8.52938
G1 X111.74 Y120.26 E8.53235
G1 X111.78 Y120.24 E8.53291
G1 X112.22 Y120.03 E8.53903
G1 X112.43 Y119.87 E8.54239
G1 X112.77 Y119.53 E8.54856
G1 X112.80 Y119.50 E8.54914
G1 X113.06 Y119.07 E8.55551
G1 X113.22 Y118.60 E8.56174
G1 X113.26 Y118.37 E8.56478
G1 X113.27 Y114.10 E8.61906
G1 X113.26 Y113.84 E8.62239
G1 X113.21 Y113.56 E8.62594
G1 X113.05 Y113.11 E8.63203
G1 X112.91 Y112.86 E8.63565
G1 X112.60 Y112.49 E8.64178
G1 X112.39 Y112.31 E8.64537
G1 X111.98 Y112.05 E8.65150
G1 X111.72 Y111.95 E8.65511
G1 X111.25 Y111.84 E8.66122
G1 X110.98 Y111.83 E8.66457
G1 X110.73 Y111.85 E8.66779
G1 X110.48 Y111.89 E8.67103
G1 X110.26 Y111.96 E8.67400
G1 X110.21 Y111.97 E8.67456
G1 X109.78 Y112.18 E8.68068
G1 X109.57 Y112.34 E8.68401
G1 X109.36 Y112.52 E8.68753
G1 X109.07 Y112.90 E8.69365
G1 X108.94 Y113.15 E8.69726
G1 X108.78 Y113.61 E8.70339
G1 X108.74 Y113.85 E8.70645
G1 X108.72 Y118.11 E8.76071
G1 X108.74 Y118.37 E8.76404
G1 X108.78 Y118.63 E8.76732
G0 F2520 X109.12 Y118.54
;TYPE:WALL-OUTER
G1 F1140 X109.19 Y118.75 E8.77015
G1 X109.37 Y119.14 E8.77560
G1 X109.64 Y119.47 E8.78098
G1 X109.81 Y119.62 E8.78386
G1 X110.17 Y119.84 E8.78923
G1 X110.38 Y119.93 E8.79210
G1 X110.79 Y120.02 E8.79745
G1 X110.99 Y120.03 E8.80009
G1 X111.22 Y120.02 E8.80297
G1 X111.43 Y119.98 E8.80572
G1 X111.65 Y119.92 E8.80855
G1 X112.03 Y119.74 E8.81392
G1 X112.20 Y119.61 E8.81671
G1 X112.50 Y119.31 E8.82209
G1 X112.51 Y119.30 E8.82228
G1 X112.74 Y118.93 E8.82772
G1 X112.88 Y118.53 E8.83312
G1 X112.91 Y118.32 E8.83579
G1 X112.92 Y114.10 E8.88953
G1 X112.87 Y113.67 E8.89508
G1 X112.73 Y113.27 E8.90044
G1 X112.62 Y113.07 E8.90331
G1 X112.36 Y112.74 E8.90868
G1 X112.19 Y112.59 E8.91153
G1 X111.83 Y112.37 E8.91690
G1 X111.62 Y112.28 E8.91977
G1 X111.21 Y112.19 E8.92512
G1 X110.99 Y112.18 E8.92791
G1 X110.57 Y112.23 E8.93338
G1 X110.35 Y112.29 E8.93621
G1 X109.97 Y112.48 E8.94158
G1 X109.63 Y112.75 E8.94719
G1 X109.37 Y113.08 E8.95254
G1 X109.26 Y113.28 E8.95542
G1 X109.12 Y113.68 E8.96078
G1 X109.09 Y113.89 E8.96346
G1 X109.07 Y118.11 E9.01719
G1 X109.12 Y118.54 E9.02265
G0 F2520 X108.86 Y118.62
G0 X103.67 Y118.39
G0 X103.40 Y118.33
G1 F1140 X103.42 Y114.10 E9.07648
G1 X103.36 Y113.67 E9.08194
G1 X103.30 Y113.46 E9.08477
G1 X103.11 Y113.07 E9.09022
G1 X102.85 Y112.74 E9.09562
G1 X102.68 Y112.59 E9.09848
G1 X102.32 Y112.37 E9.10385
G1 X102.11 Y112.28 E9.10671
G1 X101.70 Y112.19 E9.11207
G1 X101.48 Y112.18 E9.11486
G1 X101.06 Y112.23 E9.12032
G1 X100.84 Y112.29 E9.12317
G1 X100.46 Y112.48 E9.12853
G1 X100.29 Y112.60 E9.13130
G1 X99.98 Y112.92 E9.13688
G1 X99.75 Y113.27 E9.14225
G1 X99.67 Y113.48 E9.14511
G1 X99.58 Y113.88 E9.15031
G1 X99.56 Y118.11 E9.20415
G1 X99.61 Y118.54 E9.20959
G1 X99.68 Y118.75 E9.21243
G1 X99.86 Y119.13 E9.21779
G1 X99.99 Y119.31 E9.22058
G1 X100.13 Y119.47 E9.22331
G1 X100.30 Y119.62 E9.22615
G1 X100.66 Y119.84 E9.23153
G1 X100.86 Y119.93 E9.23438
G1 X101.28 Y120.02 E9.23974
G1 X101.48 Y120.03 E9.24239
G1 X101.92 Y119.98 E9.24800
G1 X102.14 Y119.92 E9.25084
G1 X102.52 Y119.74 E9.25620
G1 X102.86 Y119.46 E9.26173
G1 X103.00 Y119.30 E9.26455
G1 X103.23 Y118.94 E9.26992
G1 X103.31 Y118.73 E9.27278
G1 X103.40 Y118.33 E9.27799
G0 F2520 X103.67 Y118.39
G0 X103.11 Y119.74
G0 X100.41 Y122.63
G0 X100.39 Y122.90
G1 F1140 X99.68 Y122.83 E9.28704
G1 X98.97 Y122.70 E9.29618
G1 X98.30 Y122.52 E9.30511
G1 X97.61 Y122.29 E9.31435
G1 X96.96 Y122.01 E9.32325
G1 X96.32 Y121.69 E9.33240
G1 X95.70 Y121.31 E9.34159
G1 X95.13 Y120.91 E9.35054
G1 X94.57 Y120.44 E9.35975
G1 X94.06 Y119.96 E9.36872
G1 X93.59 Y119.43 E9.37776
G1 X93.14 Y118.86 E9.38689
G1 X92.74 Y118.26 E9.39607
G1 X92.40 Y117.66 E9.40487
G1 X83.17 Y99.96 E9.65875
G1 X83.17 Y77.07 E9.94982
G1 X87.85 Y77.07 E10.00923
G1 X97.34 Y100.22 E10.32747
G1 X97.43 Y100.28 E10.32883
G1 X104.93 Y100.28 E10.42413
G1 X116.83 Y112.18 E10.63812
G1 X116.83 Y122.93 E10.77485
G1 X100.39 Y122.90 E10.98386
G0 F2520 X100.71 Y121.73
;TYPE:FILL
G1 F1140 X90.58 Y111.60 E11.16609
G0 F2520 X91.12 Y112.63
G1 F1140 X100.19 Y121.70 E11.32920
G0 F2520 X99.61 Y121.62
G1 F1140 X91.66 Y113.67 E11.47220
G0 F2520 X92.21 Y114.71
G1 F1140 X98.98 Y121.49 E11.59412
G0 F2520 X98.28 Y121.27
G1 F1140 X92.75 Y115.74 E11.69357
G0 F2520 X93.29 Y116.78
G1 F1140 X97.46 Y120.95 E11.76851
G0 F2520 X96.33 Y120.32
G1 F1140 X93.91 Y117.89 E11.81217
G0 F2520 X98.39 Y117.92
G1 F1140 X88.95 Y108.49 E11.98187
G0 F2520 X88.41 Y107.45
G1 F1140 X98.39 Y117.43 E12.16134
G0 F2520 X98.39 Y116.93
G1 F1140 X87.87 Y106.41 E12.35059
G0 F2520 X87.33 Y105.37
G1 F1140 X98.39 Y116.44 E12.54961
G0 F2520 X98.40 Y115.95
G1 F1140 X86.79 Y104.34 E12.75841
G0 F2520 X86.25 Y103.30
G1 F1140 X98.40 Y115.45 E12.97697
G0 F2520 X98.40 Y114.96
G1 F1140 X85.70 Y102.26 E13.20532
G0 F2520 X85.16 Y101.23
G1 F1140 X98.40 Y114.47 E13.44344
G0 F2520 X98.40 Y113.97
G1 F1140 X84.62 Y100.19 E13.69135
G0 F2520 X84.35 Y99.42
G1 F1140 X98.46 Y113.54 E13.94521
G0 F2520 X98.55 Y113.13
G1 F1140 X84.35 Y98.93 E14.20068
G0 F2520 X84.35 Y98.43
G1 F1140 X98.69 Y112.78 E14.45863
G0 F2520 X98.88 Y112.47
G1 F1140 X84.35 Y97.94 E14.71994
G0 F2520 X84.35 Y97.44
G1 F1140 X99.08 Y112.17 E14.98483
G0 F2520 X99.31 Y111.91
