; generated by Slic3r 0.9.9-dev on 2013-09-21 at 15:19:23

; layer_height = 0.30
; perimeters = 3
; top_solid_layers = 3
; bottom_solid_layers = 3
; fill_density = 0.3
; perimeter_speed = 50
; infill_speed = 70
; travel_speed = 120
; nozzle_diameter = 0.45
; filament_diameter = 3
; extrusion_multiplier = 1.1
; perimeters extrusion width = 0.55mm
; infill extrusion width = 0.55mm
; solid infill extrusion width = 0.55mm
; top infill extrusion width = 0.55mm
; first layer extrusion width = 0.90mm

G21 ; set units to millimeters
M107
M190 S110 ; wait for bed temperature to be reached
M104 S260 ; set temperature
G28 ; home all axes
M109 S260 ; wait for temperature to be reached
G90 ; use absolute coordinates
G92 E0
M82 ; use absolute distances for extrusion
G1 F1800.000 E-1.00000
G92 E0
G1 Z0.300 F7200.000
G1 X80.330 Y79.374
G1 F1800.000 E1.00000
G1 X80.620 Y79.094 F900.000 E1.01573
G1 X80.940 Y78.854 E1.03133
G1 X81.110 Y78.744 E1.03923
G1 X81.460 Y78.564 E1.05458
G1 X81.830 Y78.414 E1.07016
G1 X82.210 Y78.304 E1.08559
G1 X82.800 Y78.224 E1.10882
G1 X88.180 Y78.234 E1.31870
G1 X88.630 Y78.284 E1.33636
G1 X89.070 Y78.394 E1.35406
G1 X89.490 Y78.554 E1.37159
G1 X89.880 Y78.764 E1.38887
G1 X90.250 Y79.024 E1.40651
G1 X119.290 Y102.234 E2.85678
G1 X119.600 Y102.514 E2.87307
G1 X120.000 Y102.984 E2.89715
G1 X120.310 Y103.514 E2.92110
G1 X120.530 Y104.084 E2.94494
G1 X120.620 Y104.494 E2.96132
G1 X120.670 Y104.894 E2.97704
G1 X120.670 Y118.304 E3.50018
G1 X120.590 Y118.894 E3.52341
G1 X120.480 Y119.274 E3.53884
G1 X120.330 Y119.644 E3.55442
G1 X120.150 Y119.994 E3.56977
G1 X120.040 Y120.164 E3.57767
G1 X119.800 Y120.484 E3.59328
G1 X119.520 Y120.774 E3.60900
G1 X119.380 Y120.904 E3.61645
G1 X118.890 Y121.254 E3.63995
G1 X118.360 Y121.514 E3.66298
G1 X117.790 Y121.694 E3.68629
G1 X117.200 Y121.774 E3.70952
G1 X92.600 Y121.774 E4.66920
G1 X92.200 Y121.724 E4.68492
G1 X91.800 Y121.634 E4.70092
G1 X91.230 Y121.424 E4.72462
G1 X90.880 Y121.234 E4.74015
G1 X90.540 Y121.004 E4.75617
G1 X90.100 Y120.594 E4.77963
G1 X89.960 Y120.434 E4.78792
G1 X89.730 Y120.114 E4.80330
G1 X79.810 Y104.914 E5.51138
G1 X79.710 Y104.724 E5.51975
G1 X79.480 Y104.134 E5.54446
G1 X79.380 Y103.714 E5.56130
G1 X79.330 Y103.294 E5.57780
G1 X79.330 Y81.694 E6.42044
G1 X79.410 Y81.104 E6.44367
G1 X79.590 Y80.534 E6.46699
G1 X79.850 Y80.004 E6.49002
G1 X80.245 Y79.466 E6.51605
G1 X80.930 Y79.954 F7200.000
G1 X81.330 Y79.604 F900.000 E6.53679
G1 X81.790 Y79.324 E6.55780
G1 X82.290 Y79.144 E6.57853
G1 X82.470 Y79.104 E6.58572
G1 X82.820 Y79.064 E6.59946
G1 X88.150 Y79.064 E6.80739
G1 X88.530 Y79.114 E6.82235
G1 X88.900 Y79.214 E6.83730
G1 X89.250 Y79.364 E6.85215
G1 X89.420 Y79.464 E6.85985
G1 X89.730 Y79.674 E6.87445
G1 X118.770 Y102.884 E8.32472
G1 X119.040 Y103.134 E8.33908
G1 X119.380 Y103.554 E8.36016
G1 X119.560 Y103.874 E8.37448
G1 X119.630 Y104.044 E8.38165
G1 X119.780 Y104.564 E8.40277
G1 X119.840 Y105.104 E8.42396
G1 X119.840 Y118.104 E8.93111
G1 X119.790 Y118.634 E8.95188
G1 X119.750 Y118.814 E8.95907
G1 X119.570 Y119.314 E8.97980
G1 X119.290 Y119.774 E9.00081
G1 X118.940 Y120.174 E9.02154
G1 X118.520 Y120.494 E9.04214
G1 X118.210 Y120.674 E9.05613
G1 X118.040 Y120.744 E9.06330
G1 X117.530 Y120.894 E9.08404
G1 X117.000 Y120.944 E9.10480
G1 X92.800 Y120.944 E10.04888
G1 X92.430 Y120.914 E10.06336
G1 X92.060 Y120.844 E10.07805
G1 X91.530 Y120.644 E10.10015
G1 X91.210 Y120.454 E10.11467
G1 X90.910 Y120.224 E10.12941
G1 X90.780 Y120.094 E10.13659
G1 X90.530 Y119.804 E10.15152
G1 X90.430 Y119.654 E10.15856
G1 X80.630 Y104.634 E10.85820
G1 X80.430 Y104.274 E10.87426
G1 X80.280 Y103.894 E10.89020
G1 X80.230 Y103.694 E10.89824
G1 X80.190 Y103.494 E10.90620
G1 X80.160 Y103.084 E10.92224
G1 X80.160 Y81.894 E11.74889
G1 X80.210 Y81.364 E11.76965
G1 X80.300 Y81.014 E11.78375
G1 X80.430 Y80.684 E11.79759
G1 X80.520 Y80.524 E11.80475
G1 X80.710 Y80.224 E11.81860
G1 X80.849 Y80.050 E11.82730
G1 F1800.000 E10.82730
G92 E0
G1 X100.096 Y107.444 F7200.000
G1 F1800.000 E1.00000
G1 X100.405 Y107.228 F720.000 E1.01473
G1 X100.749 Y107.068 E1.02950
G1 X101.114 Y106.970 E1.04425
G1 X101.536 Y106.941 E1.06076
G1 X101.867 Y106.970 E1.07372
G1 X102.232 Y107.068 E1.08848
G1 X102.576 Y107.228 E1.10325
G1 X102.885 Y107.445 E1.11800
G1 X103.152 Y107.711 E1.13272
G1 X103.388 Y108.063 E1.14923
G1 X103.529 Y108.364 E1.16222
G1 X103.627 Y108.730 E1.17697
G1 X103.658 Y109.088 E1.19101
G1 X103.658 Y113.124 E1.34848
G1 X103.627 Y113.483 E1.36250
G1 X103.529 Y113.848 E1.37726
G1 X103.369 Y114.191 E1.39203
G1 X103.152 Y114.501 E1.40677
G1 X102.885 Y114.768 E1.42152
G1 X102.575 Y114.985 E1.43629
G1 X102.232 Y115.145 E1.45105
G1 X101.867 Y115.243 E1.46578
G1 X101.491 Y115.276 E1.48053
G1 X101.114 Y115.243 E1.49529
G1 X100.748 Y115.145 E1.51005
G1 X100.369 Y114.959 E1.52654
G1 X100.096 Y114.768 E1.53952
G1 X99.829 Y114.501 E1.55425
G1 X99.612 Y114.191 E1.56904
G1 X99.452 Y113.849 E1.58375
G1 X99.354 Y113.483 E1.59853
G1 X99.323 Y113.124 E1.61256
G1 X99.323 Y109.088 E1.77003
G1 X99.354 Y108.729 E1.78408
G1 X99.452 Y108.365 E1.79880
G1 X99.612 Y108.021 E1.81358
G1 X99.829 Y107.712 E1.82833
G1 X100.008 Y107.533 E1.83820
G1 X100.042 Y107.071 F7200.000
G1 F1800.000 E0.83820
G92 E0
G1 X108.864 Y108.730 F7200.000
G1 F1800.000 E1.00000
G1 X108.980 Y108.323 F720.000 E1.01650
G1 X109.121 Y108.021 E1.02950
G1 X109.338 Y107.712 E1.04425
G1 X109.606 Y107.444 E1.05901
G1 X109.915 Y107.228 E1.07374
G1 X110.258 Y107.068 E1.08851
G1 X110.623 Y106.970 E1.10326
G1 X111.000 Y106.937 E1.11801
G1 X111.377 Y106.970 E1.13276
G1 X111.742 Y107.067 E1.14750
G1 X112.085 Y107.227 E1.16227
G1 X112.395 Y107.445 E1.17704
G1 X112.662 Y107.712 E1.19178
G1 X112.879 Y108.022 E1.20653
G1 X113.039 Y108.364 E1.22128
G1 X113.136 Y108.730 E1.23603
G1 X113.168 Y109.088 E1.25007
G1 X113.168 Y113.124 E1.40754
G1 X113.136 Y113.483 E1.42157
G1 X113.039 Y113.848 E1.43633
G1 X112.853 Y114.228 E1.45282
G1 X112.662 Y114.501 E1.46581
G1 X112.394 Y114.768 E1.48057
G1 X112.085 Y114.985 E1.49531
G1 X111.742 Y115.145 E1.51008
G1 X111.377 Y115.243 E1.52481
G1 X111.000 Y115.276 E1.53956
G1 X110.623 Y115.243 E1.55432
G1 X110.258 Y115.145 E1.56908
G1 X109.915 Y114.985 E1.58382
G1 X109.606 Y114.768 E1.59858
G1 X109.338 Y114.501 E1.61331
G1 X109.121 Y114.191 E1.62810
G1 X108.961 Y113.848 E1.64283
G1 X108.864 Y113.483 E1.65758
G1 X108.832 Y113.124 E1.67162
G1 X108.832 Y109.088 E1.82909
G1 X108.853 Y108.855 E1.83822
G1 X108.551 Y108.445 F7200.000
G1 X107.661 Y107.195
G1 X107.384 Y107.793 F720.000 E1.86393
G1 X107.211 Y108.440 E1.89005
G1 X107.161 Y109.015 E1.91257
G1 X107.161 Y113.197 E2.07573
G1 X107.211 Y113.774 E2.09832
G1 X107.385 Y114.422 E2.12448
G1 X107.667 Y115.028 E2.15057
G1 X108.360 Y116.017 E2.19766
G1 X104.131 Y116.017 E2.36264
G1 X104.822 Y115.030 E2.40964
G1 X105.106 Y114.422 E2.43584
G1 X105.279 Y113.773 E2.46204
G1 X105.330 Y113.198 E2.48457
G1 X105.330 Y109.015 E2.64774
G1 X105.279 Y108.439 E2.67031
G1 X105.106 Y107.790 E2.69649
G1 X104.828 Y107.195 E2.72211
G1 X107.536 Y107.195 E2.82774
G1 F1800.000 E1.82774
G92 E0
G1 X85.089 Y102.464 F7200.000
G1 F1800.000 E1.00000
G1 X85.089 Y83.983 F900.000 E1.72096
G1 X86.562 Y83.983 E1.77843
G1 X96.087 Y107.195 E2.75725
G1 X98.152 Y107.195 E2.83779
G1 X97.875 Y107.793 E2.86350
G1 X97.702 Y108.437 E2.88952
G1 X97.652 Y109.015 E2.91215
G1 X97.652 Y113.197 E3.07530
G1 X97.702 Y113.774 E3.09789
G1 X97.877 Y114.424 E3.12415
G1 X98.158 Y115.028 E3.15014
G1 X98.850 Y116.017 E3.19723
G1 X93.936 Y116.017 E3.38894
G1 X85.158 Y102.569 E4.01546
G1 X84.253 Y102.712 F7200.000
G1 X84.253 Y83.147 F900.000 E4.77872
G1 X87.123 Y83.147 E4.89065
G1 X96.647 Y106.360 E5.86946
G1 X99.999 Y106.360 E6.00022
G1 X99.186 Y107.173 E6.04507
G1 X98.886 Y107.602 E6.06551
G1 X98.663 Y108.079 E6.08605
G1 X98.528 Y108.583 E6.10642
G1 X98.487 Y109.052 E6.12476
G1 X98.487 Y113.161 E6.28506
G1 X98.528 Y113.629 E6.30338
G1 X98.664 Y114.137 E6.32390
G1 X98.885 Y114.609 E6.34425
G1 X99.187 Y115.041 E6.36480
G1 X99.557 Y115.411 E6.38520
G1 X99.987 Y115.712 E6.40568
G1 X100.461 Y115.933 E6.42609
G1 X101.491 Y116.209 E6.46767
G1 X102.518 Y115.933 E6.50917
G1 X102.994 Y115.712 E6.52964
G1 X103.424 Y115.411 E6.55013
G1 X103.795 Y115.040 E6.57059
G1 X104.096 Y114.611 E6.59103
G1 X104.317 Y114.135 E6.61151
G1 X104.453 Y113.628 E6.63199
G1 X104.494 Y113.161 E6.65027
G1 X104.494 Y109.051 E6.81059
G1 X104.453 Y108.584 E6.82889
G1 X104.317 Y108.077 E6.84936
G1 X104.095 Y107.601 E6.86985
G1 X103.794 Y107.172 E6.89032
G1 X102.982 Y106.360 E6.93512
G1 X109.508 Y106.360 E7.18972
G1 X108.696 Y107.173 E7.23457
G1 X108.395 Y107.602 E7.25501
G1 X108.173 Y108.079 E7.27555
G1 X108.037 Y108.585 E7.29598
G1 X107.997 Y109.052 E7.31425
G1 X107.997 Y113.161 E7.47457
G1 X108.037 Y113.629 E7.49288
G1 X108.173 Y114.135 E7.51334
G1 X108.394 Y114.609 E7.53375
G1 X108.696 Y115.041 E7.55430
G1 X109.066 Y115.411 E7.57470
G1 X109.399 Y115.644 E7.59054
G1 X109.496 Y115.712 E7.59518
G1 X109.971 Y115.933 E7.61559
G1 X111.000 Y116.209 E7.65717
G1 X112.028 Y115.933 E7.69868
G1 X112.504 Y115.712 E7.71917
G1 X112.933 Y115.411 E7.73962
G1 X113.304 Y115.040 E7.76009
G1 X113.538 Y114.707 E7.77595
G1 X113.606 Y114.609 E7.78058
G1 X113.827 Y114.136 E7.80099
G1 X113.963 Y113.628 E7.82148
G1 X114.003 Y113.161 E7.83977
G1 X114.003 Y109.051 E8.00009
G1 X113.963 Y108.584 E8.01839
G1 X113.827 Y108.077 E8.03886
G1 X113.605 Y107.602 E8.05930
G1 X113.305 Y107.173 E8.07975
G1 X112.491 Y106.360 E8.12462
G1 X115.747 Y106.360 E8.25161
G1 X115.747 Y116.853 E8.66096
G1 X93.484 Y116.853 E9.52946
G1 X84.322 Y102.817 E10.18333
G1 X83.418 Y102.961 F7200.000
G1 X83.418 Y82.312 F900.000 E10.98888
G1 X87.683 Y82.312 E11.15527
G1 X97.208 Y105.524 E12.13408
G1 X116.582 Y105.524 E12.88991
G1 X116.582 Y117.688 E13.36445
G1 X93.031 Y117.688 E14.28320
G1 X83.486 Y103.066 E14.96442
G1 X84.048 Y102.412 F7200.000
G1 F1800.000 E13.96442
G92 E0
G1 X94.505 Y104.934 F7200.000
G1 F1800.000 E1.00000
G1 X85.695 Y96.125 F1260.000 E1.48977
G1 X85.695 Y94.934 E1.53658
G1 X93.676 Y102.915 E1.98029
G1 X92.847 Y100.895 E2.06610
G1 X85.695 Y93.743 E2.46373
G1 X85.695 Y92.552 E2.51054
G1 X92.019 Y98.876 E2.86211
G1 X91.190 Y96.857 E2.94792
G1 X85.695 Y91.361 E3.25342
G1 X85.695 Y90.170 E3.30024
G1 X90.361 Y94.837 E3.55967
G1 X89.533 Y92.818 E3.64548
G1 X85.695 Y88.980 E3.85885
G1 X85.695 Y87.789 E3.90566
G1 X88.704 Y90.798 E4.07296
G1 X87.875 Y88.779 E4.15877
G1 X85.695 Y86.598 E4.28000
G1 X85.695 Y85.407 E4.32681
G1 X87.047 Y86.759 E4.40198
G1 X86.218 Y84.740 E4.48780
G1 F1800.000 E3.48780
G92 E0
G1 X95.333 Y106.954 F7200.000
G1 F1800.000 E1.00000
G1 X85.695 Y97.315 F1260.000 E1.53584
G1 X85.695 Y98.506 E1.58265
G1 X97.046 Y109.857 E2.21370
G1 X97.046 Y111.048 E2.26051
G1 X85.695 Y99.697 E2.89155
G1 X85.695 Y100.888 E2.93837
G1 X97.046 Y112.239 E3.56941
G1 X97.066 Y113.449 E3.61701
G1 X85.695 Y102.079 E4.24915
G1 X87.548 Y105.123 E4.38925
G1 X97.398 Y114.973 E4.93685
G1 X96.646 Y115.411 E4.97108
G1 X89.787 Y108.552 E5.35241
G1 X92.025 Y111.982 E5.51340
G1 X95.455 Y115.411 E5.70408
G1 X94.264 Y115.411 E5.75089
G1 F1800.000 E4.75089
G92 E0
G1 X97.072 Y108.692 F7200.000
G1 F1800.000 E1.00000
G1 X96.180 Y107.801 F1260.000 E1.04956
G1 F1800.000 E0.04956
G92 E0
G1 X100.758 Y106.446 F7200.000
G1 F1800.000 E1.00000
G1 X101.166 Y106.122 F360.000 E1.01261
G1 X101.390 Y106.346 E1.02027
G1 X101.899 Y106.122 E1.03372
G1 X102.223 Y106.446 E1.04482
G1 F1800.000 E0.04482
G92 E0
G1 X106.198 Y112.265 F7200.000
G1 F1800.000 E1.00000
G1 X106.293 Y110.888 F360.000 E1.06711
G1 X106.197 Y110.792 E1.07371
G1 X106.293 Y109.415 E1.14081
G1 X106.197 Y109.320 E1.14741
G1 X106.413 Y108.063 E1.20940
G1 F1800.000 E0.20940
G92 E0
G1 X106.077 Y114.924 F7200.000
G1 F1800.000 E1.00000
G1 X106.077 Y114.924 F360.000 E1.00001
G1 F1800.000 E0.00001
G92 E0
G1 X114.830 Y113.673 F7200.000
G1 F1800.000 E1.00000
G1 X114.879 Y112.423 F360.000 E1.05364
G1 X114.879 Y108.526 E1.22072
G1 X114.824 Y108.471 E1.22406
G1 X114.879 Y107.227 E1.27745
G1 F1800.000 E0.27745
G92 E0
G1 X110.267 Y106.446 F7200.000
G1 F1800.000 E1.00000
G1 X110.675 Y106.122 F360.000 E1.01261
G1 X110.899 Y106.346 E1.02027
G1 X111.408 Y106.122 E1.03371
G1 X111.733 Y106.446 E1.04481
G1 F1800.000 E0.04481
G92 E0
G1 X85.687 Y85.156 F7200.000
G1 F1800.000 E1.00000
G1 X86.161 Y84.581 F360.000 E1.02586
M106 S195
G1 F1800.000 E0.02586
G92 E0
G1 Z0.600 F7200.000
G1 X100.216 Y106.899
G1 F1800.000 E1.00000
G1 X100.619 Y106.712 F2400.000 E1.01099
G1 X101.048 Y106.597 E1.02199
G1 X101.491 Y106.558 E1.03298
G1 X101.933 Y106.597 E1.04397
G1 X102.362 Y106.712 E1.05497
G1 X102.765 Y106.899 E1.06596
G1 X103.129 Y107.154 E1.07696
G1 X103.443 Y107.468 E1.08795
G1 X103.498 Y107.548 E1.09035
G1 X103.697 Y107.832 E1.09894
G1 X103.885 Y108.235 E1.10994
G1 X104.000 Y108.664 E1.12093
G1 X104.036 Y109.071 E1.13106
G1 X104.036 Y113.141 E1.23178
G1 X104.000 Y113.549 E1.24191
G1 X103.885 Y113.978 E1.25290
G1 X103.697 Y114.380 E1.26390
G1 X103.443 Y114.744 E1.27489
G1 X103.129 Y115.058 E1.28589
G1 X102.765 Y115.313 E1.29688
G1 X102.362 Y115.501 E1.30787
G1 X101.933 Y115.616 E1.31887
G1 X101.491 Y115.654 E1.32986
G1 X101.048 Y115.616 E1.34085
G1 X100.619 Y115.501 E1.35185
G1 X100.216 Y115.313 E1.36284
G1 X100.137 Y115.257 E1.36524
G1 X99.853 Y115.058 E1.37384
G1 X99.539 Y114.744 E1.38483
G1 X99.284 Y114.380 E1.39582
G1 X99.096 Y113.978 E1.40682
G1 X98.981 Y113.549 E1.41781
G1 X98.945 Y113.141 E1.42794
G1 X98.945 Y109.071 E1.52866
G1 X98.981 Y108.664 E1.53879
G1 X99.096 Y108.235 E1.54978
G1 X99.284 Y107.832 E1.56078
G1 X99.538 Y107.468 E1.57177
G1 X99.853 Y107.154 E1.58277
G1 X100.151 Y106.945 E1.59179
G1 X100.483 Y107.360 F7200.000
G1 X100.801 Y107.212 F2400.000 E1.60049
G1 X101.140 Y107.121 E1.60919
G1 X101.491 Y107.090 E1.61788
G1 X101.841 Y107.121 E1.62658
G1 X102.180 Y107.212 E1.63528
G1 X102.499 Y107.360 E1.64398
G1 X102.786 Y107.562 E1.65268
G1 X103.035 Y107.810 E1.66137
G1 X103.258 Y108.144 E1.67131
G1 X103.385 Y108.417 E1.67875
G1 X103.476 Y108.756 E1.68745
G1 X103.506 Y109.095 E1.69586
G1 X103.506 Y113.118 E1.79543
G1 X103.476 Y113.456 E1.80384
G1 X103.385 Y113.796 E1.81254
G1 X103.237 Y114.114 E1.82124
G1 X102.999 Y114.438 E1.83117
G1 X102.786 Y114.651 E1.83862
G1 X102.499 Y114.852 E1.84732
G1 X102.180 Y115.001 E1.85601
G1 X101.841 Y115.092 E1.86471
G1 X101.491 Y115.122 E1.87341
G1 X101.140 Y115.092 E1.88211
G1 X100.801 Y115.001 E1.89081
G1 X100.441 Y114.823 E1.90074
G1 X100.195 Y114.651 E1.90818
G1 X99.946 Y114.402 E1.91688
G1 X99.745 Y114.114 E1.92558
G1 X99.596 Y113.796 E1.93428
G1 X99.505 Y113.456 E1.94298
G1 X99.475 Y113.118 E1.95139
G1 X99.475 Y109.095 E2.05096
G1 X99.505 Y108.756 E2.05937
G1 X99.596 Y108.417 E2.06807
G1 X99.745 Y108.098 E2.07676
G1 X99.946 Y107.810 E2.08546
G1 X100.195 Y107.562 E2.09416
G1 X100.417 Y107.406 E2.10089
G1 X100.493 Y107.009 F7200.000
G1 F1800.000 E1.10089
G92 E0
G1 X108.490 Y108.664 F7200.000
G1 F1800.000 E1.00000
G1 X108.605 Y108.235 F2400.000 E1.01099
G1 X108.793 Y107.832 E1.02199
G1 X109.048 Y107.468 E1.03298
G1 X109.117 Y107.400 E1.03538
G1 X109.362 Y107.154 E1.04397
G1 X109.726 Y106.899 E1.05497
G1 X110.128 Y106.712 E1.06596
G1 X110.558 Y106.597 E1.07696
G1 X111.000 Y106.558 E1.08795
G1 X111.443 Y106.597 E1.09894
G1 X111.872 Y106.712 E1.10994
G1 X112.274 Y106.899 E1.12093
G1 X112.638 Y107.154 E1.13192
G1 X112.952 Y107.468 E1.14292
G1 X113.207 Y107.832 E1.15391
G1 X113.395 Y108.235 E1.16491
G1 X113.510 Y108.664 E1.17590
G1 X113.545 Y109.071 E1.18603
G1 X113.545 Y113.141 E1.28675
G1 X113.510 Y113.549 E1.29688
G1 X113.395 Y113.978 E1.30787
G1 X113.207 Y114.380 E1.31887
G1 X112.952 Y114.744 E1.32986
G1 X112.638 Y115.058 E1.34086
G1 X112.274 Y115.313 E1.35185
G1 X111.872 Y115.501 E1.36284
G1 X111.443 Y115.616 E1.37384
G1 X111.000 Y115.654 E1.38483
G1 X110.557 Y115.616 E1.39582
G1 X110.128 Y115.501 E1.40682
G1 X109.726 Y115.313 E1.41781
G1 X109.646 Y115.257 E1.42021
G1 X109.362 Y115.058 E1.42880
G1 X109.048 Y114.744 E1.43980
G1 X108.793 Y114.380 E1.45079
G1 X108.605 Y113.978 E1.46179
G1 X108.490 Y113.549 E1.47278
G1 X108.455 Y113.141 E1.48291
